layout/admin/dist/assets/admin/img/logo.svg

<svg width="50" height="40" viewBox="0 0 50 40" fill="none" xmlns="http://www.w3.org/2000/svg">
<path d="M41.2388 30.2709V10.0676H45.4912C47.7052 10.0676 49.5 11.8623 49.5 14.0763V26.2622C49.5 28.4761 47.7052 30.2709 45.4912 30.2709H41.2388Z" fill="#FC466B" stroke="#FC466B"/>
<path d="M1.00212 19.8766L1.00224 19.869L1.00225 19.8613C1.01183 9.85018 9.77759 1.61482 20.7488 1.61469C26.1239 1.61469 30.9851 3.59893 34.5369 6.8049L35.2028 6.06723L34.537 6.80492C36.6148 8.68029 38.4762 10.1133 41.3324 10.4666V29.7893C40.1822 29.9151 39.1552 30.1377 38.1754 30.5296C36.9324 31.0269 35.8229 31.7736 34.6533 32.8456L34.653 32.8459C31.0903 36.1141 26.1808 38.1416 20.7488 38.1416H20.7402L20.7317 38.1417C10.08 38.3236 0.83995 29.8136 1.00212 19.8766Z" stroke="url(#paint0_linear)" stroke-width="2"/>
<path d="M18.5547 18.7171C17.9446 18.7171 17.4319 18.5054 17.0166 18.0821C16.6012 17.6588 16.3936 17.1585 16.3936 16.5812C16.3936 15.7858 16.7894 15.138 17.5812 14.6377L22.1566 11.7706C22.3513 11.6551 22.4746 11.5397 22.5265 11.4242C22.5914 11.3088 22.6238 11.1869 22.6238 11.0586C22.6238 10.8918 22.5589 10.7443 22.4291 10.616C22.2993 10.4877 22.1306 10.4236 21.9229 10.4236H16.8803V8.90344H22.4681C23.0652 8.90344 23.5649 9.11511 23.9672 9.53845C24.3826 9.94895 24.5903 10.4493 24.5903 11.0394C24.5903 11.8347 24.2009 12.4825 23.4221 12.9829L18.8467 15.85C18.652 15.9654 18.5222 16.0809 18.4573 16.1963C18.4054 16.3118 18.3795 16.4337 18.3795 16.562C18.3795 16.7287 18.4444 16.8762 18.5742 17.0045C18.704 17.1328 18.8792 17.197 19.0998 17.197H24.415V18.7171H18.5547Z" fill="#FC466B"/>
<path d="M18.5545 20.4012C17.9445 20.4012 17.4319 20.6129 17.0165 21.0362C16.6012 21.4596 16.3936 21.9599 16.3936 22.5372C16.3936 23.3325 16.7894 23.9803 17.5811 24.4807L22.1562 27.3478C22.3509 27.4632 22.4742 27.5787 22.5261 27.6941C22.591 27.8096 22.6234 27.9315 22.6234 28.0598C22.6234 28.2265 22.5585 28.3741 22.4288 28.5023C22.299 28.6306 22.1302 28.6948 21.9226 28.6948H16.8803V30.2149H22.4677C23.0647 30.2149 23.5644 30.0032 23.9668 29.5799C24.3821 29.1694 24.5897 28.6691 24.5897 28.079C24.5897 27.2836 24.2004 26.6358 23.4216 26.1355L18.8466 23.2684C18.6519 23.1529 18.5221 23.0375 18.4572 22.922C18.4053 22.8066 18.3793 22.6847 18.3793 22.5564C18.3793 22.3896 18.4442 22.2421 18.574 22.1138C18.7038 21.9855 18.879 21.9214 19.0997 21.9214H24.4145V20.4012H18.5545Z" fill="#FC466B"/>
<defs>
<linearGradient id="paint0_linear" x1="2.98942e-05" y1="19.8796" x2="42.3325" y2="19.8796" gradientUnits="userSpaceOnUse">
<stop stop-color="#16BFFD"/>
<stop offset="0.713853" stop-color="#FC466B"/>
</linearGradient>
</defs>
</svg>

<svg width="50" height="40" viewBox="0 0 50 40" fill="none" xmlns="http://www.w3.org/2000/svg"><path d="M41.239 30.27V10.069h4.252a4.009 4.009 0 014.009 4.008v12.186a4.009 4.009 0 01-4.009 4.009H41.24z" fill="#FC466B" stroke="#FC466B"/><path d="M1.002 19.877v-.016C1.012 9.851 9.778 1.615 20.75 1.615c5.375 0 10.236 1.984 13.788 5.19l.666-.738-.666.738c2.078 1.875 3.94 3.308 6.795 3.662v19.322c-1.15.126-2.177.349-3.157.74-1.243.498-2.352 1.245-3.522 2.317h0c-3.563 3.268-8.472 5.296-13.904 5.296h-.017C10.08 38.324.84 29.814 1.002 19.877z" stroke="url(#paint0_linear)" stroke-width="2"/><path d="M18.555 18.717a2.07 2.07 0 01-1.538-.635 2.071 2.071 0 01-.623-1.5c0-.796.395-1.444 1.187-1.944l4.576-2.867c.194-.116.318-.231.37-.347a.735.735 0 00.097-.365.605.605 0 00-.195-.443.69.69 0 00-.506-.192H16.88v-1.52h5.588c.597 0 1.097.211 1.5.634.415.41.622.911.622 1.501 0 .796-.39 1.444-1.168 1.944l-4.575 2.867c-.195.115-.325.23-.39.346a.882.882 0 00-.078.366c0 .167.065.314.195.442.13.129.305.193.526.193h5.315v1.52h-5.86zm0 1.684a2.07 2.07 0 00-1.538.635 2.072 2.072 0 00-.623 1.501c0 .796.395 1.443 1.187 1.944l4.575 2.867c.195.115.318.23.37.346a.735.735 0 01.097.366.605.605 0 01-.194.442.69.69 0 01-.506.193H16.88v1.52h5.588c.597 0 1.096-.212 1.499-.635.415-.41.623-.91.623-1.501 0-.795-.39-1.443-1.168-1.944l-4.575-2.867c-.195-.115-.325-.23-.39-.346a.881.881 0 01-.078-.366c0-.166.065-.314.195-.442.13-.129.305-.193.526-.193h5.314v-1.52h-5.86z" fill="#FC466B"/><defs><linearGradient id="paint0_linear" x1="0" y1="19.88" x2="42.333" y2="19.88" gradientUnits="userSpaceOnUse"><stop stop-color="#16BFFD"/><stop offset=".714" stop-color="#FC466B"/></linearGradient></defs></svg>
